!!!XEN: (no words)
!!!AGN: Moccasin game [gambling] song
!!!COM: Anonymous
!!!CNT: Native American -- Ojibway
!!!TXO: Ojibway
!!!MLC: Red Lake reservation, northern Minnesota, U.S.A.
!!!MRD: 1907-1909///
!!!MPN: Gi'wita'bines ("Spotted bird")
**kern
*MM84
*Imale
*k[f#c#g#]
*clefG2
*M2/4
=1
4F#
4f#
=2
4f#
4f#
=3
4f#
8.f#
16e
=4
4c#
8c#
8B
=5
8G#
8c#
8.c#
16B
*clefF4
=6
[2A
=7
4A]
4F#
=8
*M3/4
8A
8A
12A
12A
12c#
8.c#
16B
=9
8.A
16F#
8A
8F#
8.F#
16F#
=10
2.F#
==
*-
!!!OCL: Frances Densmore
!!!YOR: Chippewa [i.e., Ojibway] Music, Bulletin 45 of the Bureau of American Ethnology, Smitsonian Institution
!!!ONM: 170
!!!PPG: 187
!!!PUB: published
!!!PPR: Government Printing Office
!!!PPP: Washington, D.C.
!!!PDT: 1909///
!!!EST: missing clef changes, text, drum tempo, and drum part
!!!YEC: Copyright 1998 Paul von Hippel
!!!YEM: Rights to all derivate electronic formats reserved.
!!!EFL: 18/42
